X:1
T:Pärlan, 10.9.10.9 D
T:Pärlan, 10.9.10.9 D
T:Andrew L. Skoog, 1898
T:Public Domain Courtesy of the Cyber Hymnal™
C:Andrew L. Skoog, 1898
Z:Public Domain
Z:Courtesy of the Cyber Hymnal™
%%score ( 1 2 ) 3
L:1/8
Q:1/4=110
M:4/4
K:A
V:1 treble 
V:2 treble 
V:3 bass 
V:1
 [A,C][B,D] | [CE]2 [DF][DF] [CE]2 [A,C]>[CE] | [CA]4 [CE]2 [CE][CE] | %3
 [CA]2 [EG][EA] [FB]2 [FA][DF] | [CE]6 [A,C][B,D] | [CE]2 [DF][DF] [CE]2 [A,C]>[CE] | %6
 [CA]4 [CE]2 [EA][EA] | [EG]2 [EF][EG] [^DA]2 [DF][B,D] | [B,E]6 E>E | %9
 [DB]2 [C^A][DB] [Ec]2 [DB]>[Dc] | [CA]4 [CE]2 [CE][CE] | [DF]2 [DF][DG] A2 [GB][FB] | %12
 [^Ec]6 [Ec]>[Ec] | [Ee]2 [Ed][EB] [Ec]2 [EA]>E | [EG]4 [DF]2 [Fd][Fd] | %15
 [Ec]2 [EA][Ec] [^DB]2 [DF][=DG] | [CA]6 |] %17
V:2
 x2 | x8 | x8 | x8 | x8 | x8 | x8 | x8 | x6 E>E | x8 | x8 | x4 (DA) x2 | x8 | x15/2 E/ | x8 | x8 | %16
 x6 |] %17
V:3
 [A,,E,][A,,E,] | [A,,A,]2 [A,,A,][A,,A,] [A,,A,]2 [A,,E,]>[A,,E,] | %2
 [A,,E,]4 [A,,A,]2 [A,,A,][A,,A,] | [A,,A,]2 [C,A,][C,A,] [D,A,]2 [D,A,][D,A,] | %4
 [A,,A,]6 [A,,E,][A,,E,] | [A,,A,]2 [A,,A,][A,,A,] [A,,A,]2 [A,,E,]>[A,,E,] | %6
 [A,,E,]4 [A,,A,]2 [A,,C][A,,C] | [B,,B,]2 [B,,A,][B,,G,] [B,,F,]2 [B,,A,][B,,A,] | %8
 [E,G,]6 [E,G,]>[E,G,] | [E,G,]2 [E,G,][E,G,] [E,G,]2 [E,G,]>[E,G,] | %10
 [A,,A,]4 [A,,A,]2 [A,,A,][A,,A,] | [D,A,]2 [D,A,][D,^E,] [D,F,]2 [D,F,][D,F,] | %12
 [C,G,]6 [C,G,]>[C,G,] | [B,,G,]2 [E,G,][E,G,] [A,,A,]2 [C,A,]>[C,A,] | %14
 [D,A,]4 [D,A,]2 [D,A,][D,A,] | [E,A,]2 [C,A,][A,,A,] [B,,F,]2 [B,,B,][E,B,] | [A,,A,]6 |] %17

